X:59
T:Gan Ainm (for now)
O:scotland
M:4/4
L:1/8
S:Kevin O'Connor
R:Reel
K:ADor
A3 B cBcd|egdg eA ~A2|fggf gBBA|GEBG cGBG|A3 B \
cBcd|egdg eA ~A2|fggf gBBA|GEBG A4:|{^g}a3g a=ged|\
eA ~A2eAfA|g3 f gBBA|GEBG cGBG|^cA ~A2cAdA|\
eA ~A2eaaf|fggf gBBA|GEBG A4|{^g}a3g a=ged|eA ~A2\
eAfA|g3 f gBBA|GEBG cGBG|A3 B cgcd|e2ed eA ~A2|\
fggf gBBA|GEBG A4||
